X:1
T:Title
%%score ( 1 2 ) ( 3 4 )
L:1/8
M:4/4
K:F
V:1 treble nm="Choir Aahs, Staff"
V:2 treble 
V:3 bass nm="Choir Aahs, Staff-1"
V:4 bass 
V:1
 D2 DE [DF]2 [DG]2 | [EA]4 [EA]4 | [Ac]2 [FA]2 [Ed]2 [E^c]2 | [Fd]8 | D2 DE [DF]2 [DG]2 | %5
w: By~P.~Sohren,~Frankfurt,~1668 * * * *|||||
 [EA]4 [EA]4 | [Ac]2 [FA]2 [Ed]2 [E^c]2 | [Fd]8 | [Fd]2 [Fd]2 [Ec]2 [Ec]2 | [_A=B]4 [E=A]4 | %10
w: |||||
 [GB]2 [FA]2 G3 F | F8 | [Gc]2 [FA]2 [EG]2 [EA]2 | [DF]4 E4 | [DA]3 [EG] [DF]2 [^CE]2 | D8 |] %16
w: ||||||
V:2
 x8 | x8 | x8 | x8 | x8 | x8 | x8 | x8 | x8 | x8 | z4 F2 E2 | x8 | x8 | x8 | x8 | x8 |] %16
V:3
 [D,F,]2 F,G, [D,A,]2 [B,,D]2 | [A,,D]4 [A,,^C]4 | [F,C]2 [A,C]2 [G,B,]2 A,2 | [D,A,]8 | %4
 [D,F,]2 F,G, [D,A,]2 [B,,D]2 | [A,,D]4 [A,,^C]4 | [F,C]2 [A,C]2 [G,B,]2 A,2 | [D,A,]8 | %8
 [D,A,]2 [D,A,]2 A,-[=B,,A,]A,-[D,A,] | E2 D2 [A,C]4 | [G,,D]2 [A,,C]2 [B,,D]2 [C,B,]2 | [F,A,]8 | %12
 [E,G,]2 [F,A,]2 [C,C]2 [A,,C]2 | A,2 =B,2 [A,,^C]4 | [F,,D]3 [G,,B,] [A,,A,]2 [A,,G,]2 | %15
 [D,F,]8 |] %16
V:4
 z2 D,2 z4 | x8 | x8 | x8 | z2 D,2 z4 | x8 | x8 | x8 | z4 .A,,2 .C,2 | E,4 z4 | x8 | x8 | x8 | %13
 D,4 z4 | x8 | x8 |] %16

